X:1
T:Oh, for a Closer Walk with God
T:Text: William Cowper, 1772 Tune: John B. Dykes, 1875
T:CM BEATITUDO www.hymnary.org/text/o_for_a_closer_walk_with_god_cowper
T:Oh, for a Closer Walk with God
T:This hymn is in the public domain.  You may freely use this score for personal and congregational worship.  If you reproduce the score, please credit Hymnary.org as the source. 
T:This hymn is in the public domain.  You may freely use this score for personal and congregational worship.  If you reproduce the score, please credit Hymnary.org as the source. 
Z:This hymn is in the public domain.  You may freely use this score for personal and congregational worship.  If you reproduce the score, please credit Hymnary.org as the source.
%%score ( 1 2 3 ) ( 4 5 )
L:1/8
M:3/4
K:G
V:1 treble nm="SOPRANO ALTO" snm="S. A."
V:2 treble 
V:3 treble 
V:4 bass nm="TENOR BASS" snm="T. B."
V:5 bass 
V:1
"^1""^2""^3""^4""^5" G2 A2 B2 | d4 B2 | G4 c2 | B6 | E2 F2 G2 | B4 A2 | A6 | A2 d2 c2 | B4 G2 |1 %9
w: Oh, for a|clos- er|walk with|God,|a calm and|heav- enly|frame,|a light to|shine up-|
w: Where is the|bless- ed-|ness I|knew|when first I|sought the|Lord?|Where is the|soul- re-|
w: What peace- ful|hours I|once en-|joyed!|How sweet their|mem- ory|still!|But they have|left an|
w: The dear- est|i- dol|I have|known,|what- e're that|i- dol|be,|help me to|tear it|
w: So shall my|walk be|close with|God,|calm and se-|rene my|frame;|so pur- er|light shall|
 B4 A2 | G4 A2 | B4 B2 | c4 F2 | G6 |] %14
w: on the|road that|leads me|to the|Lamb!|
w: fresh- ing|view of|Je- sus|and his|Word?|
w: ach- ing|void the|world can|nev- er|fill.|
w: from thy|throne and|wor- ship|on- ly|thee.|
w: mark the|road that|leads me|to the|Lamb.|
V:2
 B,2 D2 D2 | D4 D2 | (C2 B,2) E2 | D6 | D2 D2 D2 | ^C4 C2 | D6 | F2 G2 A2 | D4 E2 |1 ^D4 F2 | %10
 E4 F2 | D4 =F2 | ^F4 D2 | D6 |] %14
V:3
 x6 | x6 | x6 | x6 | x6 | G4 G2 | F6 | D2 D2 D2 | x6 |1 x6 | x6 | x6 | x6 | x6 |] %14
V:4
 D2 C2 B,2 | G,4 G,2 | G,4 G,2 | G,6 | B,2 B,2 B,2 | G,4 E,2 | F,6 | C2 B,2 A,2 | G,4 G,2 |1 %9
 F,4 F,2 | G,4 G,2 | G,4 ^G,2 | A,4 C2 | B,6 |] %14
V:5
 G,2 F,2 G,2 | B,,4 D,2 | (E,2 D,2) C,2 | G,,6 | G,2 F,2 E,2 | A,,4 A,,2 | D,6 | D,2 D,2 F,2 | %8
 G,4 E,2 |1 B,,4 B,,2 | E,4 C,2 | D,4 D,2 | D,4 D,2 | G,,6 |] %14

